svgs/sharp-light/transporter-7.svg

<svg xmlns="http://www.w3.org/2000/svg" viewBox="0 0 512 512"><!--! Font Awesome Pro 6.6.0 by @fontawesome - https://fontawesome.com License - https://fontawesome.com/license (Commercial License) Copyright 2024 Fonticons, Inc. --><path d="M480 48l0-16-32 0 0 16 0 16-16 0-16 0 0 32 16 0 16 0 0 16 0 16 32 0 0-16 0-16 16 0 16 0 0-32-16 0-16 0 0-16zM64 272l0-16-32 0 0 16 0 16-16 0L0 288l0 32 16 0 16 0 0 16 0 16 32 0 0-16 0-16 16 0 16 0 0-32-16 0-16 0 0-16zm48 176l-16 0 0 16 0 32 0 16 32 0 0-16 0-16 256 0 0 16 0 16 32 0 0-16 0-32 0-16-16 0-288 0z"/></svg>

<svg xmlns="http://www.w3.org/2000/svg" viewBox="0 0 512 512"><!--! Font Awesome Pro 6.4.0 by @fontawesome - https://fontawesome.com License - https://fontawesome.com/license (Commercial License) Copyright 2023 Fonticons, Inc. --><path d="M480 48V32H448V48 64H432 416V96h16 16v16 16h32V112 96h16 16V64H496 480V48zM64 272V256H32v16 16H16 0v32H16 32v16 16H64V336 320H80 96V288H80 64V272zm48 176H96v16 32 16h32V496 480H384v16 16h32V496 464 448H400 112z"/></svg>
